icons/Favorites(Outlined).svg

<svg width="24" height="24" viewBox="0 0 24 24" fill="none" xmlns="http://www.w3.org/2000/svg">
<path fill-rule="evenodd" clip-rule="evenodd" d="M7.157 5.748C7.45409 5.74748 7.74812 5.80792 8.02092 5.92557C8.29371 6.04322 8.53947 6.21558 8.743 6.432L10.043 7.779L11.998 9.842L13.953 7.779L15.253 6.443C15.4524 6.22716 15.6942 6.05491 15.9634 5.93711C16.2325 5.8193 16.5232 5.75849 16.817 5.75849C17.1108 5.75849 17.4015 5.8193 17.6706 5.93711C17.9398 6.05491 18.1817 6.22716 18.381 6.443C18.9525 7.04783 19.2708 7.8484 19.2708 8.6805C19.2708 9.5126 18.9525 10.3132 18.381 10.918L11.995 17.554L5.593 10.906C5.02154 10.3012 4.70316 9.5006 4.70316 8.6685C4.70316 7.8364 5.02154 7.03583 5.593 6.431C5.79271 6.2186 6.03313 6.04857 6.29994 5.93106C6.56675 5.81354 6.85449 5.75095 7.146 5.747L7.157 5.748ZM7.146 3.033C6.49149 3.03332 5.84372 3.16511 5.24112 3.42054C4.63851 3.67598 4.09336 4.04986 3.638 4.52C2.58642 5.63465 2.00067 7.1091 2.00067 8.6415C2.00067 10.1739 2.58642 11.6484 3.638 12.763L11.61 21.063C11.7138 21.1664 11.8544 21.2245 12.001 21.2245C12.1476 21.2245 12.2882 21.1664 12.392 21.063L20.364 12.763C21.4156 11.6484 22.0013 10.1739 22.0013 8.6415C22.0013 7.1091 21.4156 5.63465 20.364 4.52C19.9105 4.04285 19.3646 3.66291 18.7597 3.40329C18.1547 3.14368 17.5033 3.0098 16.845 3.0098C16.1867 3.0098 15.5353 3.14368 14.9303 3.40329C14.3254 3.66291 13.7795 4.04285 13.326 4.52L12 5.932L10.675 4.52C10.2221 4.04166 9.6767 3.66028 9.07198 3.399C8.46725 3.13772 7.81576 3.00198 7.157 3L7.146 3.033Z" fill="black"/>
</svg>

<svg xmlns="http://www.w3.org/2000/svg" viewBox="0 0 24 24">
  <path d="M7.157 5.748a2.172 2.172 0 011.586.684l1.3 1.347 1.955 2.063 1.955-2.063 1.3-1.336a2.13 2.13 0 013.128 0 3.258 3.258 0 010 4.475l-6.386 6.636-6.402-6.648a3.258 3.258 0 010-4.475 2.172 2.172 0 011.553-.684l.011.001zm-.011-2.715A4.887 4.887 0 003.638 4.52a6.006 6.006 0 000 8.243l7.972 8.3a.554.554 0 00.782 0l7.972-8.3a6.006 6.006 0 000-8.243 4.855 4.855 0 00-7.038 0L12 5.932 10.675 4.52A4.865 4.865 0 007.157 3l-.011.033z"/>
</svg>
